X:8902
T:La Cuesta La Reboll (Arrg.)
T:Villa de Mieres
R:Xiraldilla
C:Tradicional
S:Msica Tradicional Asturiana, (C) Tello & Tito. Asturies, 2001.
S:http://pagina.de/MusTradAst <telloytito@asturies.org>
O:Mieres
A:Asturies
G:Arrg.
Z:Curdin
M:3/8
L:1/8
Q:1/4=150
W:   Re
W:Si fuere mozu solteru
W:   Sol        La   Re
W:en Mieres nun me casara
W:(bis)
W:    Sol             Re
W:por nun subir nin baxar
W:   Sol       La  Re
W:La Cuesta La Reboll
W:(bis)
W:
W:Viva Mieres por que tien
W:la entrada pela estacin
W:(bis)
W:Vivan les fes de viuda
W:que per una muerro yo
W:(bis)
W:
W:Borrachu m'acost anuechi
W:borrachu m'allevant
W:(bis)
W:nun s que cou me pasa
W:y toi borrachu otra vez
W:(bis)
K:F
C|:"F"F3/2F/F|"F"F2 G|"F"AFA|"Bb"ABA|"C"G2 F|"F"F [C2F2]-|[1 "F"[C2F2] C:|[2 "F"[C2F2] A|
|:"Bb"B2 B|"Bb/ Gm"BAG|"F"AFA|"Bb"ABA|"C"G2 F|"F"E [C2F2]-|"F"[C2F2] [CA]:|
